**kern	**silbe
*ICvox	*
*G:	*
*M4/4	*
*clefF4	*
r;	.
=1	=1
1r	.
=2	=2
1r	.
=3	=3
1r	.
=4	=4
1r	.
=5	=5
1r	.
=6	=6
4r	.
[2d	Child-
16d]	_
8.e	-hood
=7	=7
16B	liv-
4..B	-ing
2r	.
=8	=8
4r	.
8r	.
16B	It's
[16f#	ea-
8f#]	_
8.d	_
16B	-sy
16A	to
[16B	do
=9	=9
2.B]	_
4r	.
=10	=10
4r	.
8r	.
16G	The
4.A	things
[8.B	you
=11	=11
8B]	_
16A	wan-
[16E	_
8E]	_
[8G	-ted
4G]	_
4r	.
=12	=12
4r	.
8r	.
16G	I
[16B	bought
8B]	_
16A	them
[16G	_
8G]	_
8G	for
=13	=13
16F#	you
[8.A	_
2A]	_
4r	.
=14	=14
4r	.
8r	.
4..d	Grace-
8.e	-less
=15	=15
8.B	la-
[16B	-dy
2B]	_
4r	.
=16	=16
4r	.
8r	.
16B	You
16f#	know
4d	_
16d	who
8.A	I
=17	=17
2B	am
2r	.
=18	=18
4r	.
8r	.
16G	You
[16A	know
8A]	_
4A	I
[8B	can't
=19	=19
16B]	_
16A	let
8E	_
2G	you
4r	.
=20	=20
2r	.
4B	slide
16A	through
8.G	my
=21	=21
16F#	hands
[8.A	_
2A]	_
4r	.
=22	=22
2r	.
[2B	Wild
=23	=23
16B]	_
16A	hors-
8E	_
2G	-es
4r	.
=24	=24
4r	.
8B	coul-
8B	-d'nt
8A	drive
8.B	me
8.A	a-
=25	=25
16E	-way
4..G	_
2r	.
=26	=26
2r	.
[4B	Wild
16B]	_
[8.B	wild
=27	=27
8B]	_
16A	hors-
8E	_
[8.G	-es
8.G]	_
16r	.
4r	.
=28	=28
4r	.
8B	coul-
8B	-'dnt
8A	drag
8.B	me
8.A	a-
=29	=29
8E	-way
4.G	_
2r	.
=30	=30
2r	.
8d	I
8.d	watched
8.e	you
=31	=31
16r	.
8B	su-
[16B	-ffer
4.B]	_
8r	.
4r	.
=32	=32
4r	.
8r	.
16B	a
16f#	dull
8d	_
8.d	ach-
[8.B	-ing
=33	=33
8B]	_
16A	pain
[16B	_
2B]	_
4r	.
=34	=34
2r	.
8A	Now
8.A	you
[8.B	de-
=35	=35
16B]	_
16A	-cid-
8.E	_
2G	-ed
8.r	.
=36	=36
4r	.
8r	.
16G	to
[16B	show
8B]	_
4A	me
8G	the
=37	=37
16F#	same
[8.A	_
2A]	_
4r	.
=38	=38
4r	.
8r	.
4d	No
8.d	swee-
[8.e	-ping
=39	=39
8e]	_
8.B	ex-
4..B	-its
4r	.
=40	=40
4.r	.
8f#	or
16d	_
4d	off
[8.B	stage
=41	=41
8B]	_
[8B	lines
2B]	_
4r	.
=42	=42
4r	.
8r	.
16G	could
[16A	make
8A]	_
8.A	me
8.B	feel
=43	=43
8B	_
16A	bi-
[16E	_
16E]	_
2G	-tter
16r	.
8r	.
=44	=44
4r	.
8r	.
16D	or
8.B	treat
8.A	you
8.G	un-
=45	=45
16F#	-kind
[8.A	_
2A]	_
4r	.
=46	=46
2r	.
[2B	Wild
=47	=47
16B]	_
16A	hors-
8E	_
4.G	-es
8r	.
4r	.
=48	=48
4r	.
8B	coul-
8B	-d'nt
8A	drive
8.B	me
8.A	a-
=49	=49
8E	-way
4.G	_
2r	.
=50	=50
2r	.
[4B	Wild
16B]	_
[8.B	wild
=51	=51
8B]	_
16A	hors-
8E	_
[8.G	-es
8G]	_
8r	.
4r	.
=52	=52
4r	.
8B	coul-
8B	-'dnt
8A	drag
8.B	me
8.A	a-
=53	=53
8E	-way
4.G	_
2r	.
=54	=54
1r	.
=55	=55
1r	.
=56	=56
1r	.
=57	=57
1r	.
=58	=58
1r	.
=59	=59
1r	.
=60	=60
2r	.
8d	I
8d	know
[4e	I
=61	=61
16e]	_
[8.B	dreamed
8B]	_
4.B	you
4r	.
=62	=62
4.r	.
16B	a
16g	sin
16f#	_
4d	and
8A	a
[16B	lie
=63	=63
2B]	_
2r	.
=64	=64
4r	.
8r	.
4A	I
8.A	have
[8.B	my
=65	=65
16B]	_
16A	free-
8E	_
4.G	-dom
8r	.
4r	.
=66	=66
4r	.
8r	.
16G	but
16G	I
8B	don't
16A	have
8G	_
8.G	much
=67	=67
16F#	time
[8.A	_
4A]	_
2r	.
=68	=68
4r	.
8r	.
[8d	Faith
8d]	_
8.d	has
8.e	been
=69	=69
8r	.
8.B	bro-
[16B	-ken
4B]	_
8r	.
4r	.
=70	=70
4r	.
8r	.
4f#	tears
8.d	must
8.A	be
=71	=71
2B	cried
2r	.
=72	=72
4r	.
8r	.
4A	Let's
8.A	do
[8.B	some
=73	=73
8B]	_
16A	_
[16E	li-
16E]	_
[8.G	-ving
4G]	_
4r	.
=74	=74
2r	.
8B	af-
16A	-ter
8G	_
[8.G	we
=75	=75
16G]	_
16F#	die
[8A	_
2A]	_
4r	.
=76	=76
2r	.
[2B	Wild
=77	=77
16B]	_
16A	hors-
8E	_
4.G	-es
8r	.
4r	.
=78	=78
4r	.
8B	coul-
8B	-d'nt
8A	drive
8.B	me
8.A	a-
=79	=79
8E	-way
4.G	_
2r	.
=80	=80
2r	.
[4B	Wild
16B]	_
[8.B	wild
=81	=81
8B]	_
16A	hors-
8E	_
[8.G	-es
8G]	_
8r	.
4r	.
=82	=82
4r	.
8r	.
8G	We'll
8B	ride
8.G	them
16A	some-
[8G	_
=83	=83
16G]	_
[8.G	-day
8G]	_
8r	.
2r	.
=84	=84
1r	.
=85	=85
1r	.
=86	=86
1r	.
=87	=87
1r	.
=88	=88
1r	.
=89	=89
1r	.
=90	=90
1r	.
=91	=91
1r	.
=92	=92
2r	.
[2B	Wild
=93	=93
8B]	_
16A	hors-
16E	_
4.G	-es
8r	.
4r	.
=94	=94
4r	.
8B	coul-
8B	-d'nt
8A	drag
8.B	me
8.A	a-
=95	=95
8E	-way
4.G	_
2r	.
=96	=96
2r	.
[4B	Wild
16B]	_
[8.B	wild
=97	=97
8B]	_
16A	hors-
8E	_
[8.G	-es
8G]	_
8r	.
4r	.
=98	=98
4r	.
8r	.
8G	We'll
8B	ride
8.G	them
16A	some-
8G	_
=99	=99
4.G	-day
8r	.
2r	.
=100	=100
1r	.
r;	.
r;	.
*-	*-
!!!ENC: Nathaniel Condit-Schultz